icons/glyphs/glyph-lotus.svg

<?xml version="1.0" encoding="UTF-8" standalone="no"?><svg height="22" viewBox="0 0 5.8208332 5.8208335" width="22" xmlns="http://www.w3.org/2000/svg"><sodipodi:namedview/><metadata><rdf:RDF><cc:Work><dc:format>image/svg+xml</dc:format><dc:type/><dc:title/></cc:Work></rdf:RDF></metadata><path d="m2.9164384.0717816c-.3012012.37649994-.9787495.60243994-.7787873 1.08739l.7787873 1.6172898.7792892-1.6172898c.1999626-.48495006-.478087-.71089006-.7792892-1.08739zm-1.4070358.96496c-.2800401.002-.62697558.1541-.92832268.15455.1065419.47024-.1395163 1.14105.3643039 1.2871l1.75026428.39994-.7787872-1.61779c-.095422-.17203-.2394343-.2250201-.4074583-.2238zm2.8110606.008c-.168024-.0009711-.312027.0518-.407458.2238099l-.7792891 1.61729 1.7502641-.3994399c.503828-.14602.25824-.81687.364806-1.28711-.301347-.00048-.648283-.1525101-.928323-.15455zm-3.52561828 1.66296c-.4349619.008-.5135481.6547699-.79484479 1.0086001.43407529.20989.80510369.8202099 1.23341457.5173599l1.4035234-1.11925-1.75026448-.39943c-.032331-.006-.062831-.008-.091829-.007zm4.23114328.01c-.029-.0005107-.0595.00201-.09183.008l-1.7502628.3994206 1.4035228 1.1190002c.428296.3028699.799329-.3074799 1.233415-.51734-.281278-.3538601-.359883-1.00081-.794845-1.00862zm-2.2405185.59012-1.4035234 1.119c-.39058398.35015.1218197.8478198.2298226 1.3177198.4347362-.2085199 1.1434316-.1181197 1.1737008-.6417998zm.2433711.004v1.79543c.030242.5236901.7384724.43326 1.1731994.6418001.108026-.4699.62089-.96754.230324-1.31771z" fill="#d0d0d0" shape-rendering="crispEdges"/></svg>

<?xml version="1.0" encoding="UTF-8" standalone="no"?>
<!-- Created with Inkscape (http://www.inkscape.org/) -->

<svg
   xmlns:dc="http://purl.org/dc/elements/1.1/"
   xmlns:cc="http://creativecommons.org/ns#"
   xmlns:rdf="http://www.w3.org/1999/02/22-rdf-syntax-ns#"
   xmlns:svg="http://www.w3.org/2000/svg"
   xmlns="http://www.w3.org/2000/svg"
   xmlns:sodipodi="http://sodipodi.sourceforge.net/DTD/sodipodi-0.dtd"
   xmlns:inkscape="http://www.inkscape.org/namespaces/inkscape"
   width="22"
   height="22"
   viewBox="0 0 5.8208332 5.8208335"
   version="1.1"
   id="svg8"
   inkscape:version="0.92+devel 15681 custom"
   sodipodi:docname="glyph-lotus.svg">
  <defs
     id="defs2" />
  <sodipodi:namedview
     id="base"
     pagecolor="#002266"
     bordercolor="#ffffff"
     borderopacity="0.46666667"
     inkscape:pageopacity="0"
     inkscape:pageshadow="2"
     inkscape:zoom="25.295139"
     inkscape:cx="11.505944"
     inkscape:cy="9.763545"
     inkscape:document-units="px"
     inkscape:current-layer="svg8"
     inkscape:document-rotation="0"
     showgrid="false"
     inkscape:showpageshadow="false"
     borderlayer="true"
     units="px"
     fit-margin-top="0"
     fit-margin-left="0"
     fit-margin-right="0"
     fit-margin-bottom="0"
     inkscape:window-width="1920"
     inkscape:window-height="1051"
     inkscape:window-x="0"
     inkscape:window-y="0"
     inkscape:window-maximized="1"
     inkscape:snap-bbox="true"
     inkscape:object-paths="true"
     inkscape:snap-intersection-paths="true"
     inkscape:snap-midpoints="true"
     inkscape:snap-smooth-nodes="true"
     showguides="true"
     inkscape:guide-bbox="true"
     inkscape:snap-object-midpoints="false"
     inkscape:snap-center="true" />
  <metadata
     id="metadata5">
    <rdf:RDF>
      <cc:Work
         rdf:about="">
        <dc:format>image/svg+xml</dc:format>
        <dc:type
           rdf:resource="http://purl.org/dc/dcmitype/StillImage" />
        <dc:title />
      </cc:Work>
    </rdf:RDF>
  </metadata>
  <path
     style="display:inline;opacity:1;fill:#d0d0d0;fill-opacity:1;stroke:none;stroke-width:0.11045776;stroke-linecap:round;stroke-miterlimit:4;stroke-dasharray:none;stroke-opacity:1;shape-rendering:crispEdges"
     d="M 2.9164384,0.0717816 C 2.6152372,0.44828154 1.9376889,0.67422154 2.1376511,1.1591716 L 2.9164384,2.7764614 3.6957276,1.1591716 C 3.8956902,0.67422154 3.2176406,0.44828154 2.9164384,0.0717816 Z m -1.4070358,0.96496 c -0.2800401,0.002 -0.62697558,0.1541 -0.92832268,0.15455 0.1065419,0.47024 -0.1395163,1.14105 0.3643039,1.2871 l 1.75026428,0.39994 -0.7787872,-1.61779 c -0.095422,-0.17203 -0.2394343,-0.2250201 -0.4074583,-0.2238 z m 2.8110606,0.008 c -0.168024,-9.711e-4 -0.312027,0.0518 -0.407458,0.2238099 l -0.7792891,1.61729 1.7502641,-0.3994399 c 0.503828,-0.14602 0.25824,-0.81687 0.364806,-1.28711 -0.301347,-4.8e-4 -0.648283,-0.1525101 -0.928323,-0.15455 z m -3.52561828,1.66296 C 0.35988302,2.7157016 0.28129682,3.3624715 1.25e-7,3.7163017 0.43407542,3.9261917 0.80510382,4.5365116 1.2334147,4.2336616 l 1.4035234,-1.11925 -1.75026448,-0.39943 c -0.032331,-0.006 -0.062831,-0.008 -0.091829,-0.007 z m 4.23114328,0.01 c -0.029,-5.107e-4 -0.0595,0.00201 -0.09183,0.008 L 3.1838954,3.1251222 4.5874182,4.2441224 c 0.428296,0.3028699 0.799329,-0.3074799 1.233415,-0.51734 -0.281278,-0.3538601 -0.359883,-1.00081 -0.794845,-1.00862 z m -2.2405185,0.59012 -1.4035234,1.119 C 0.99136232,4.7769716 1.503766,5.2746414 1.6117689,5.7445414 2.0465051,5.5360215 2.7552005,5.6264217 2.7854697,5.1027416 Z m 0.2433711,0.004 v 1.79543 c 0.030242,0.5236901 0.7384724,0.43326 1.1731994,0.6418001 0.108026,-0.4699 0.62089,-0.96754 0.230324,-1.31771 z"
     id="use4356"
     inkscape:connector-curvature="0"
     inkscape:label="glyph" />
</svg>
